img/ic_search.svg

<svg width="17" height="17" viewBox="0 0 17 17" fill="none" xmlns="http://www.w3.org/2000/svg">
<path d="M12.8077 11.2646C13.6463 10.1193 14.1577 8.71849 14.1782 7.19495C14.2361 3.33326 11.1645 0.119158 7.30548 0.00327286C3.22824 -0.119429 -0.119456 3.22419 0.00327033 7.30402C0.119178 11.1623 3.33392 14.2332 7.19639 14.1787C8.71683 14.1549 10.1214 13.647 11.2668 12.8085L15.1395 16.6805C15.5656 17.1065 16.2577 17.1065 16.6804 16.6805C17.1065 16.2544 17.1065 15.5625 16.6804 15.1399C15.3611 13.8174 12.8077 11.2646 12.8077 11.2646ZM7.09071 11.9974C4.38391 11.9974 2.18166 9.79554 2.18166 7.08929C2.18166 4.38304 4.38391 2.18123 7.09071 2.18123C9.79751 2.18123 11.9998 4.38304 11.9998 7.08929C11.9998 9.79554 9.79751 11.9974 7.09071 11.9974Z" fill="#768496"/>
</svg>

<svg width="17" height="17" fill="none" xmlns="http://www.w3.org/2000/svg"><path d="M12.808 11.265a7.026 7.026 0 0 0 1.37-4.07C14.236 3.333 11.164.119 7.305.003 3.228-.119-.119 3.224.003 7.304c.116 3.858 3.33 6.93 7.193 6.875a7.06 7.06 0 0 0 4.07-1.37l3.873 3.871a1.089 1.089 0 1 0 1.541-1.54c-1.319-1.323-3.872-3.875-3.872-3.875zm-5.717.732A4.914 4.914 0 0 1 2.18 7.09a4.914 4.914 0 0 1 4.91-4.908A4.914 4.914 0 0 1 12 7.09a4.914 4.914 0 0 1-4.91 4.908z" fill="#768496"/></svg>
